X:85
T:Duke of Leinster's Wife
Z: id:dc-reel-78
M:C
L:1/8
K:G Major
GA|BdcA GFGB|A=FF2 cFF2|BdcA GBge|fdcA BG:|!
Bd|fgaf g2fg|abag fdde|fgaf gbag|fdcA BGBd|!
fgaf g2fg|abag fdd^c|defg abag|fdcA BG|]!

